assets/home-tab/Asset/pixel.svg

<svg width="74" height="17" viewBox="0 0 74 17" fill="none" xmlns="http://www.w3.org/2000/svg">
<path d="M8.8582 16.2662C8.60785 16.2662 8.40208 16.0646 8.40208 15.8151V14.7691C8.40208 14.5196 8.60442 14.318 8.8582 14.318H13.2187C13.8291 14.318 14.3556 13.7965 14.3556 13.1881V3.08835C14.3556 2.47994 13.8291 1.95851 13.2187 1.95851H3.09163C2.4812 1.95851 1.95477 2.47994 1.95477 3.08835V13.1881C1.95477 13.7965 2.4812 14.318 3.09163 14.318H3.29224C4.45139 14.318 4.62629 13.8121 4.64687 13.5968V5.39018C4.64687 4.98002 4.98295 4.64163 5.39791 4.64163H9.58523C10.7307 4.64163 11.6635 5.57133 11.6635 6.71294V9.58747C11.6635 10.7154 10.7444 11.6314 9.61267 11.6314H6.6085V13.607C6.6085 13.7711 6.5742 14.6358 5.84373 15.3673C5.26073 15.9518 4.42738 16.2526 3.37112 16.2662H3.27167H0.919085C0.411531 16.2662 0 15.8561 0 15.3502V0.916022C0 0.410159 0.411531 0 0.919085 0H15.3981C15.9057 0 16.3172 0.410159 16.3172 0.916022V15.3468C16.3172 15.8527 15.9057 16.2628 15.3981 16.2628H8.8582V16.2662ZM9.70526 9.67634V6.58989H6.6085V9.67634H9.70526Z" fill="url(#paint0_linear_181_264)"/>
<path d="M27.6954 1.94543C29.441 2.0513 31.2394 3.16237 31.2394 6.01868C31.2393 8.57469 28.7535 9.47419 27.6954 9.61536H24.6798V14.4288H22.7228V1.94543H27.6954ZM24.6798 3.79797V7.76477H27.6954C28.2245 7.69404 29.2925 7.24616 29.3351 6.01965C29.388 4.48593 28.7002 4.00962 27.6954 3.79797H24.6798Z" fill="#364251"/>
<rect x="35.3126" y="1.89557" width="1.90428" height="12.801" fill="#364251"/>
<path d="M55.3077 1.89185H61.2325V3.79614H55.3077V7.28735H60.2804V9.19165H55.3077V12.7893H61.2325V14.6936H53.4034V1.89087H55.3077V1.89185Z" fill="#364251"/>
<path d="M67.2628 12.7874H73.1866V14.6917H65.3575V12.7874H65.3585V1.89087H67.2628V12.7874Z" fill="#364251"/>
<path d="M45.1957 6.29614L47.6898 1.89087H49.5941L46.1547 7.96509L50.0179 14.6917H48.1136L45.2094 9.63501L42.347 14.6917H40.4427L44.2504 7.96509L40.7611 1.89087H42.6654L45.1957 6.29614Z" fill="#364251"/>
<defs>
<linearGradient id="paint0_linear_181_264" x1="8.1586" y1="0" x2="8.13312" y2="26.7715" gradientUnits="userSpaceOnUse">
<stop offset="0.163487" stop-color="#16BECF"/>
<stop offset="1" stop-color="#045F69"/>
</linearGradient>
</defs>
</svg>

<svg xmlns="http://www.w3.org/2000/svg" width="74" height="17" fill="none" viewBox="0 0 74 17"><path fill="url(#a)" d="M8.858 16.266a.454.454 0 0 1-.456-.45v-1.047c0-.25.202-.451.456-.451h4.36c.611 0 1.138-.521 1.138-1.13v-10.1c0-.608-.527-1.13-1.137-1.13H3.092c-.61 0-1.137.522-1.137 1.13v10.1c0 .608.526 1.13 1.137 1.13h.2c1.16 0 1.334-.506 1.355-.721V5.39c0-.41.336-.748.75-.748h4.188c1.146 0 2.079.93 2.079 2.07v2.875a2.05 2.05 0 0 1-2.051 2.044H6.609v1.976a2.6 2.6 0 0 1-.765 1.76c-.583.585-1.417.886-2.473.9H.92A.92.92 0 0 1 0 15.35V.916C0 .41.412 0 .92 0h14.478c.508 0 .92.41.92.916v14.43a.92.92 0 0 1-.92.917h-6.54zm.847-6.59V6.59H6.61v3.086z"/><path fill="#364251" d="M27.695 1.945c1.746.106 3.544 1.217 3.544 4.074 0 2.556-2.486 3.455-3.544 3.596H24.68v4.814h-1.957V1.945zM24.68 3.798v3.967h3.015c.53-.071 1.598-.519 1.64-1.745.053-1.534-.635-2.01-1.64-2.222zm10.633-1.902h1.904v12.801h-1.904zm19.995-.004h5.925v1.904h-5.925v3.491h4.972v1.905h-4.972v3.597h5.925v1.905h-7.83V1.89h1.905m11.955 10.897h5.924v1.905h-7.83v-1.905h.002V1.891h1.904zM45.196 6.296l2.494-4.405h1.904l-3.44 6.074 3.864 6.727h-1.904l-2.905-5.057-2.862 5.057h-1.904l3.807-6.727-3.489-6.074h1.904z"/><defs><linearGradient id="a" x1="8.159" x2="8.133" y1="0" y2="26.771" gradientUnits="userSpaceOnUse"><stop offset=".163" stop-color="#16becf"/><stop offset="1" stop-color="#045f69"/></linearGradient></defs></svg>
